X: 79
T: la Dragonne
%R: reel
B: Stewart "A Select Collection of Airs, Jigs, Marches and Reels", ca.1784, p.38 #79
F: http://imslp.org/wiki/A_Select_Collection_of_Airs,_Jigs,_Marches_and_Reels_%28Various%29
Z: 2017 John Chambers <jc:trillian.mit.edu>
M: 2/4
L: 1/16
K: G
|:\
DEFG A2A2 | d2^cB AGFE |\
DEFG A2A2 | d4 A4 ::\
c2BA TB2AG | A2GF G2AB |
c2BA B2AG | TA4 G4 ::\
G2B2B2E2 | F2G2 AGAB |\
A2B2B2E2 | F2GA {B}TA4 | G4 z4 :|
